images/picture-icon.svg

<svg width="12" height="12" viewBox="0 0 12 12" fill="none" xmlns="http://www.w3.org/2000/svg">
<path d="M4.75 0.999969H2.75C2.19772 0.999969 1.75 1.44768 1.75 1.99997V3.99997C1.75 4.55225 2.19772 4.99997 2.75 4.99997H4.75C5.30228 4.99997 5.75 4.55225 5.75 3.99997V1.99997C5.75 1.44768 5.30228 0.999969 4.75 0.999969Z" stroke="#E6704B" stroke-linecap="round" stroke-linejoin="bevel"/>
<path d="M4.75 6.99997H2.75C2.19772 6.99997 1.75 7.44768 1.75 7.99997V9.99997C1.75 10.5523 2.19772 11 2.75 11H4.75C5.30228 11 5.75 10.5523 5.75 9.99997V7.99997C5.75 7.44768 5.30228 6.99997 4.75 6.99997Z" stroke="#E6704B" stroke-linecap="round" stroke-linejoin="bevel"/>
<path d="M10.25 7.99994H7.25" stroke="#E6704B" stroke-linecap="round" stroke-linejoin="bevel"/>
<path d="M9.25 9.99997H7.25" stroke="#E6704B" stroke-linecap="round" stroke-linejoin="bevel"/>
<path d="M9.25 3.99997H7.25" stroke="#E6704B" stroke-linecap="round" stroke-linejoin="bevel"/>
<path d="M10.25 1.99994H7.25" stroke="#E6704B" stroke-linecap="round" stroke-linejoin="bevel"/>
</svg>

<svg width="12" height="12" fill="none" xmlns="http://www.w3.org/2000/svg"><path d="M4.75 1h-2a1 1 0 0 0-1 1v2a1 1 0 0 0 1 1h2a1 1 0 0 0 1-1V2a1 1 0 0 0-1-1ZM4.75 7h-2a1 1 0 0 0-1 1v2a1 1 0 0 0 1 1h2a1 1 0 0 0 1-1V8a1 1 0 0 0-1-1ZM10.25 8h-3M9.25 10h-2M9.25 4h-2M10.25 2h-3" stroke="#E6704B" stroke-linecap="round" stroke-linejoin="bevel"/></svg>
